X:144
T:RVW2/2/145 Good People All
C:J.W. Wright ("Mr. Smith" in MS), Coombe Bissett, Wiltshire,  2 Sep 1904
L:1/8
Q:1/4=90
M:6/8
I:linebreak $
K:G
"^(Editorial suggestion " B | BEE EED | D/D/ E2- E2 D | DGG AGB | G B2- B3 |$ BEE E2 E | 
w: Come|all you young la- dies and|gen- tle- men, _ let|me with your com- pan- y|ming- le. _|Once I was young like|
[M:3/8] D2 D |[M:6/8] DGG AGB | GB z z2 F/G/ | GBB BBB |$ G3 z z G | AAA ABA | BA z z z G/G/ | 
w: you and|then I was hap- py and|sing- le till my|moth- er ad- vised me to|wed; un-|til sev- en- teen I had|tar- ried. I went|
GBB BBB | G2 z z z G |$ AAA ABG | FA z z3 ||"^slower" B3- B2 A | BGE FE^D | E3 z2 |] 
w: off to the church in a|trance one|day like a man to be|mar- ried.|O, _ I|wish I were sing- le a-|gain.|



